X:1
T:Title
%%score ( 1 2 ) ( 3 4 )
L:1/8
Q:1/4=95
M:4/4
K:Eb
V:1 treble nm="Grand Piano, Soprano"
V:2 treble 
V:3 bass nm="Choir Pad, There�s a Message"
V:4 bass 
V:1
 [EG][FA][GB][GB] [GB][Ac] [GB]2 | z2 e4 z2 | [EG][FA][Ac][GB] [GB][EG] E2 | [DF][EG] [DF]6 | %4
w: By~John~Robson~Sweney * * * * * *||||
 [EG][FA][GB][GB] [GB][Ac] [GB]2 | z2 e4 z2 | [Ec][Ec][EB][EB] [EB][Ge] [Fd]2 | [Ec]2 [DB]6 | %8
w: ||||
 [DB][DB][DB][DA] [DA][DA] [Ad]2 | [Ac][Ad] [Ge]6 | [EB][EB][DB][DA] [DA][DA] [Ad]2 | %11
w: |||
 [Ac][Ad] [Ge]6 | [GB][GB][Ge][Ge] [Fd][Fd] [Ec]2 | [EG][EG][=Ec][Ec] [GB][GB] [FA]2 | %14
w: |||
 [Ec][Ec][Ec][DB] [DB][Ge] [Fd]2 | [Ac][Ad] [Ge]6- | [Ge]2 z2 z4 |] %17
w: |||
V:2
 x8 | [Ge][Ge] G4- [GB]2 | x8 | x8 | x8 | [Ge][Ge] G4- [Gc]2 | x8 | x8 | x8 | x8 | x8 | x8 | x8 | %13
 x8 | x8 | x8 | x8 |] %17
V:3
 [E,B,][E,B,][E,E][E,E] [E,E][E,E] [E,E]2 | [E,B,][E,B,] B,4 E2 | %2
 [E,B,][E,B,][E,E][E,E] [E,E][E,B,] [G,B,]2 | [F,B,][E,B,] [B,,B,]6 | %4
 [E,B,][E,B,][E,E][E,E] [E,E][E,E] [E,E]2 | [E,B,][E,B,] C4 E2 | %6
 A,A,[G,B,][G,B,] [G,B,][E,B,] [F,B,]2 | [F,=A,]2 [B,,B,]6 | %8
 [B,,F,][B,,F,][B,,F,][B,,F,] [B,,F,][B,,F,] [B,,F,]2 | %9
 [B,,B,][B,,B,] [E,B,]2 [E,B,][E,B,] [E,B,]2 | [E,G,][E,G,][B,,F,][B,,F,] [B,,F,][B,,F,] [B,,F,]2 | %11
 [B,,B,][B,,B,] [E,B,]2 [E,B,][E,B,] [E,B,]2 | [E,E][E,E][E,B,][E,B,] [G,=B,][G,B,] [A,C]2 | %13
 [C,C][C,C][C,G,][C,G,] [=E,C][E,C] [F,C]2 | [F,=A,][F,A,][B,,B,][B,,B,] [B,,B,][B,,B,] [B,,B,]2 | %15
 [B,,B,][B,,B,] [E,B,]6- | [E,B,]2 z2 z4 |] %17
V:4
 x8 | z2 E,6 | x8 | x8 | x8 | z2 A,6 | x8 | x8 | x8 | x8 | x8 | x8 | x8 | x8 | x8 | x8 | x8 |] %17

